svgs/sukko.svg

<svg width="192" height="192" viewBox="0 0 192 192" fill="none" xmlns="http://www.w3.org/2000/svg">
<path d="M104.684 87.2678C116.195 75.693 134.857 75.693 146.368 87.2678C157.878 98.8424 157.877 117.608 146.368 129.183L114.41 161.319C102.899 172.893 84.2374 172.894 72.7268 161.32C61.2163 149.745 61.2169 130.978 72.7275 119.403L104.684 87.2678Z" stroke="black" stroke-width="12" stroke-linecap="round" stroke-linejoin="round"/>
<path d="M77.5899 30.6811C89.1005 19.1063 107.763 19.1063 119.273 30.6811C130.783 42.2557 130.783 61.0211 119.273 72.5958L87.3154 104.732C75.8049 116.307 57.1431 116.307 45.6326 104.733C34.122 93.158 34.1227 74.3909 45.6333 62.8161L77.5899 30.6811Z" stroke="black" stroke-width="12" stroke-linecap="round" stroke-linejoin="round"/>
</svg>

<svg xmlns="http://www.w3.org/2000/svg" width="192" height="192" fill="none" viewBox="0 0 192 192"><path stroke="#000" stroke-linecap="round" stroke-linejoin="round" stroke-width="12" d="M104.684 87.268c11.511-11.575 30.173-11.575 41.684 0s11.509 30.34 0 41.915l-31.958 32.136c-11.511 11.574-30.173 11.575-41.683.001s-11.51-30.342 0-41.917zM77.59 30.681c11.51-11.575 30.173-11.575 41.683 0s11.51 30.34 0 41.915l-31.958 32.136c-11.51 11.575-30.172 11.575-41.682.001s-11.51-30.342 0-41.917z"/></svg>
